X:1
T:Songs of the Kingdom
T:Adam Geibel
T:Songs of the Kingdom
T:Public Domain
T:Public Domain
C:Adam Geibel
Z:Public Domain
%%score ( 1 2 ) ( 3 4 )
L:1/8
M:4/4
K:Eb
V:1 treble 
V:2 treble 
V:3 bass 
V:4 bass 
V:1
 (EG) | [GB]3 [EG] E[EG][EA][Ec] | [EB]6 [EG]2 | [DB]2 ([FA][EG]) [DF]2 [DB]2 | [EG]6 (EG) | %5
w: 1.~God’s *|dom is with- in the heart,|there He|reigns as * king; He|speaks to *|
w: 2.~God’s *|dom is with- in the heart,|mel- o-|dies are * there; We|hear His *|
w: 3.~God’s *|dom is with- in the heart,|Sav- ior,|reign in * love, Un-|til to *|
 [GB]3 [EG] E[EG][EA][Ec] | [EB]6 ([GB][_Gc]) | [Fd]2 [FB]2 (=AB) [Ec]2 | [DB]6 ||"^Refrain" B>B | %10
w: and bids us learn His bless-|songs to *|sing. * * * *|||
w: der lov- ing tones, It sanc-|fies our *|care. O the * songs,|songs|of the|
w: en we are called To sing|songs a- *|bove. * * * *|||
 [Ad]3 [Ad] [Ad]2 [Ac][Ad] | (G2 A2) [GB]3 [EB] | [Ec]2 [Ed][Ee] (eB)[DA][EG] | [DF]6 [DF]2 | %14
w: ||||
w: That help us bid e-|vil * de- part;|glad songs of God’s * bless- èd|dom, The|
w: ||||
 [EG]2 [EG]>[FA] [GB]2 [EG]E | [Ec]4 [Ae]2 (EF) | [EG]2 [Ed][Ec] (BF) [DG]>[DF] | (E2 C>C B,2) |] %18
w: ||||
w: king- dom of God in the||||
w: ||||
V:2
 E2 | x4 E x3 | x8 | x8 | x6 E2 | x4 E x3 | x8 | x4 E2 x2 | x6 || B>B | x8 | e4 x4 | x4 E2 x2 | %13
w: king-|’Tis|||us|èd||||||||
w: king-|Sweet|||ten-|ti-||the||king- dom,||The|king-|
w: king-|Dear|||Heav-|the||||||||
 x8 | x7 E | x6 E2 | x4 D2 x2 | E6 |] %18
w: |||||
w: |heart.||||
w: |||||
V:3
 (G,B,) | [E,E]3 [E,B,] [E,G,][E,B,][E,C][E,A,] | [E,G,]6 [E,B,]2 | %3
 [B,,B,]2 [B,,B,]2 [B,,B,]2 [B,,B,]2 | [E,B,]6 (G,B,) | [E,E]3 [E,B,] [E,G,][E,B,][E,C][E,A,] | %6
 [E,G,]6 [E,B,]2 | [F,B,]2 [F,D]2 (CB,) [F,=A,]2 | [B,,B,]6 || B,>B, | %10
 [B,F]3 [B,F] [B,F]2 [B,E][B,F] | (E2 C2) [E,E]3 [E,G,] | A,2 [A,B,][A,C] [G,B,]2 [F,B,][E,B,] | %13
 [B,,B,]6 [B,,B,]2 | [E,B,]2 [E,B,]>[E,B,] [E,E]2 [E,_D][E,D] | [A,C]4 [A,C]2 (C_C) | %16
 [B,,B,]2 [B,,G,][B,,G,] (F,A,) [B,,B,]>[B,,A,] | (G,2 A,A,3/4 G,2) x/4 |] %18
V:4
 E,2 | x8 | x8 | x8 | x6 E,2 | x8 | x8 | x4 F,2 x2 | x6 || B,>B, | x8 | E,4 x4 | A,2 x6 | x8 | x8 | %15
 x6 A,,2 | x4 B,,2 x2 | E,6 |] %18

